public/assets/img/tech-logo/git.svg

<svg width="100" height="100" viewBox="0 0 100 100" fill="none" xmlns="http://www.w3.org/2000/svg">
<g id="git">
<g id="git_2">
<path id="Vector" d="M98.1141 45.5449L54.4531 1.88633C51.9402 -0.628125 47.8621 -0.628125 45.3461 1.88633L36.2797 10.9527L47.7809 22.4539C50.4535 21.5508 53.5184 22.1566 55.6488 24.2871C57.7894 26.4312 58.391 29.5223 57.466 32.2035L68.55 43.2879C71.2316 42.3641 74.3258 42.9617 76.4676 45.107C79.4609 48.0992 79.4609 52.9488 76.4676 55.943C73.4734 58.9375 68.6238 58.9375 65.6281 55.943C63.3766 53.6891 62.8203 50.3824 63.9602 47.6086L53.6234 37.2719L53.6223 64.4738C54.3716 64.8443 55.056 65.3337 55.6488 65.923C58.6422 68.9152 58.6422 73.7652 55.6488 76.7617C52.6547 79.7547 47.8027 79.7547 44.8129 76.7617C41.8195 73.7652 41.8195 68.9156 44.8129 65.9234C45.5302 65.2057 46.3827 64.6374 47.3211 64.2512V36.7957C46.3814 36.4121 45.5284 35.8434 44.8129 35.1234C42.5449 32.8586 41.9996 29.5309 43.1617 26.7461L31.8242 15.4074L1.88672 45.343C-0.628906 47.8598 -0.628906 51.9383 1.88672 54.4531L45.5484 98.1125C48.0621 100.627 52.1395 100.627 54.6562 98.1125L98.1137 54.6559C100.629 52.1402 100.629 48.0594 98.1141 45.5449Z" fill="#DE4C36"/>
</g>
</g>
</svg>

<svg xmlns="http://www.w3.org/2000/svg" width="100" height="100" fill="none"><path fill="#DE4C36" d="M98.114 45.545 54.454 1.886a6.44 6.44 0 0 0-9.108 0l-9.066 9.067 11.5 11.5a7.65 7.65 0 0 1 7.869 1.834 7.66 7.66 0 0 1 1.817 7.916L68.55 43.289c2.682-.924 5.776-.326 7.918 1.819a7.66 7.66 0 0 1 0 10.836A7.662 7.662 0 0 1 63.96 47.61L53.623 37.272v27.202c.749.37 1.433.86 2.026 1.449a7.663 7.663 0 0 1 0 10.839 7.66 7.66 0 0 1-10.836 0 7.663 7.663 0 0 1 2.508-12.51V36.795a7.6 7.6 0 0 1-2.508-1.673 7.66 7.66 0 0 1-1.651-8.377L31.824 15.407 1.887 45.343a6.44 6.44 0 0 0 0 9.11l43.661 43.66a6.44 6.44 0 0 0 9.108 0l43.458-43.457a6.444 6.444 0 0 0 0-9.111"/></svg>
